svg/color/xsgd.svg

<svg width="64" height="65" viewBox="0 0 64 65" fill="none" xmlns="http://www.w3.org/2000/svg">
<rect y="0.303711" width="64" height="64" rx="32" fill="#1048E5"/>
<rect x="0.5" y="0.803711" width="63" height="63" rx="31.5" stroke="#070B14" stroke-opacity="0.15"/>
<path fill-rule="evenodd" clip-rule="evenodd" d="M11.8435 20.1089C11.713 20.3265 11.5798 20.4217 11.3132 20.4081H11.316C10.9661 20.3888 10.6149 20.3927 10.2594 20.3966L10.2593 20.3967C10.1119 20.3983 9.96385 20.3999 9.81484 20.3999C13.1516 13.7727 21.0515 7.227 31.5784 7.01761C42.8069 6.79461 51.0278 13.6748 54.4243 20.3999C54.2878 20.3999 54.1519 20.4003 54.0166 20.4008H54.0165H54.0164H54.0163H54.0162H54.0161C53.567 20.4022 53.1241 20.4037 52.6812 20.389C52.5996 20.3863 52.499 20.2612 52.4446 20.1715C51.3704 18.3957 50.0977 16.7804 48.6048 15.3363C45.9669 12.7828 42.8994 10.939 39.4104 9.8023C37.7298 9.2557 36.0084 8.91033 34.2462 8.7526C29.7754 8.35557 25.5277 9.15508 21.5193 11.1593C17.4347 13.2016 14.2122 16.2011 11.8435 20.1089ZM52.4421 44.5184C52.5345 44.3606 52.6297 44.2845 52.8228 44.2899C53.2075 44.2998 53.5937 44.2982 53.9865 44.2966C54.1351 44.296 54.2846 44.2954 54.4354 44.2954C50.8077 51.3904 42.8751 57.2399 33.3299 57.6532C21.5956 58.1617 13.2442 51.0205 9.80417 44.2981C9.95464 44.2981 10.1029 44.2976 10.2495 44.2971H10.251H10.2524H10.2538H10.2552H10.2566H10.258H10.2583C10.6994 44.2955 11.1255 44.2941 11.55 44.3063C11.6316 44.309 11.7322 44.415 11.7812 44.4966C12.5644 45.8074 13.4591 47.0338 14.4843 48.1651C17.8645 51.8962 22.009 54.3328 26.9148 55.4641C29.1148 55.9726 31.3475 56.1466 33.5992 56.0025C36.392 55.8258 39.0788 55.1785 41.6432 54.0473C44.3491 52.8561 46.7503 51.219 48.8443 49.1332C50.2366 47.7463 51.4359 46.2071 52.4421 44.5184ZM12.6595 40.1102C12.8086 39.318 12.9475 38.5207 13.0861 37.7256L13.1028 37.6301C13.44 35.6966 14.4108 34.2172 16.173 33.2736C16.9251 32.8705 17.6636 32.4451 18.4025 32.0195C18.8151 31.7818 19.2278 31.544 19.643 31.3102C20.9347 30.5841 21.8648 29.586 22.1204 28.0659C22.2183 27.484 22.3186 26.902 22.4189 26.3201C22.4691 26.0291 22.5193 25.7381 22.5691 25.4471C22.5961 25.289 22.6236 25.1308 22.6514 24.971L22.6514 24.9709C22.6853 24.7761 22.7197 24.5787 22.754 24.3756H18.2262C18.2192 24.3994 18.2122 24.4222 18.2054 24.4442L18.2053 24.4443C18.1859 24.5076 18.1683 24.5646 18.1582 24.6231C18.0974 24.9622 18.0376 25.3019 17.9777 25.6416L17.9775 25.6424L17.9775 25.6429L17.9774 25.643L17.9774 25.6431L17.9774 25.6431L17.9774 25.6432C17.89 26.1391 17.8025 26.6352 17.7122 27.1304C17.3696 29.0231 16.4042 30.4644 14.6909 31.3972C13.3883 32.1069 12.1048 32.8493 10.8293 33.6053C9.68447 34.2852 8.9339 35.2642 8.71907 36.6103C8.60485 37.3146 8.47976 38.0163 8.35467 38.7179C8.29821 39.0412 8.23853 39.3645 8.17697 39.698L8.17691 39.6983L8.17664 39.6998C8.14045 39.8959 8.10362 40.0954 8.06641 40.3006C9.57841 40.3006 11.036 40.3006 12.4936 40.2924C12.5507 40.2924 12.6459 40.1755 12.6595 40.1021V40.1102ZM53.5515 27.408C55.0009 28.0987 55.7678 29.3061 56.0479 30.8426V30.8399C56.309 32.273 56.2383 33.6926 55.6617 35.0469C55.039 36.5045 53.8914 37.3475 52.3685 37.6847C51.9116 37.7853 51.4412 37.8506 50.9734 37.8615C50.0522 37.8802 49.131 37.8782 48.2098 37.8763C47.9263 37.8757 47.6428 37.8751 47.3593 37.8751C47.3379 37.8751 47.3174 37.8711 47.2858 37.8649C47.2653 37.8609 47.2402 37.8559 47.207 37.8506V37.5406V27.1605C47.207 26.923 47.324 26.8043 47.5578 26.8043C47.8642 26.8043 48.1705 26.8031 48.4768 26.8019C49.212 26.7991 49.9472 26.7963 50.6825 26.8097C51.6751 26.826 52.6459 26.9756 53.5515 27.408ZM50.7532 35.501C51.928 35.4493 52.7193 34.8021 53.013 33.6708V33.6681C53.2088 32.9121 53.2278 32.1452 53.1109 31.3811C52.8498 29.6869 51.8355 29.0995 50.1576 29.1865V35.501C50.2323 35.501 50.3037 35.502 50.373 35.5029H50.3731H50.3733C50.5057 35.5047 50.63 35.5064 50.7532 35.501ZM42.6928 29.5971C42.8011 29.6675 42.9058 29.7438 43.0132 29.8222C43.0677 29.862 43.1229 29.9022 43.1796 29.9425L43.5702 29.4646L43.586 29.4452C43.9573 28.991 44.3255 28.5405 44.7025 28.0797C44.6654 28.0461 44.6308 28.0141 44.5978 27.9836L44.5969 27.9828L44.5968 27.9827L44.5968 27.9826L44.5966 27.9824L44.5965 27.9824C44.5259 27.9171 44.4625 27.8586 44.3979 27.805C43.1524 26.758 41.7166 26.429 40.1339 26.6955C38.4451 26.9783 37.118 27.8268 36.3158 29.3524C35.3694 31.1499 35.3368 33.0345 36.0275 34.9191C36.5061 36.2271 37.4416 37.1272 38.7361 37.6439C39.5981 37.9866 40.4955 38.1144 41.4201 38.079C42.6493 38.0328 43.7561 37.6521 44.7297 36.8852C44.8711 36.7737 44.9282 36.6568 44.9282 36.4746C44.9231 35.4835 44.9233 34.4925 44.9235 33.5008V33.5007V33.5007V33.5006C44.9237 32.9059 44.9238 32.3109 44.9228 31.7156C44.9228 31.6558 44.9176 31.5961 44.9127 31.5382L44.91 31.5066C44.9087 31.4909 44.9075 31.4753 44.9065 31.4599C44.8909 31.4558 44.8776 31.452 44.8659 31.4486L44.8659 31.4486C44.8387 31.4408 44.8202 31.4355 44.8031 31.4355H44.8017C43.4969 31.4355 42.192 31.4355 40.8871 31.43C40.7049 31.43 40.6805 31.5198 40.6805 31.6666C40.6823 31.9386 40.6817 32.2105 40.6811 32.4824C40.6808 32.6184 40.6805 32.7544 40.6805 32.8904V33.8367H42.3121C42.3121 33.9772 42.3114 34.1149 42.3106 34.2506V34.2511V34.2513V34.2515V34.2516C42.3089 34.5624 42.3073 34.8631 42.3148 35.1638C42.3203 35.365 42.2441 35.4847 42.0538 35.501C41.9801 35.5069 41.9061 35.5136 41.8319 35.5203L41.8319 35.5203C41.5283 35.5479 41.2219 35.5756 40.9225 35.5472C39.9217 35.4521 39.1821 34.9571 38.8421 33.9808C38.4913 32.9692 38.4696 31.9358 38.8095 30.9188C39.3643 29.249 41.2216 28.6236 42.6928 29.5944V29.5971ZM29.226 35.46C29.6611 35.5334 30.1234 35.5171 30.5639 35.4709H30.5667C30.874 35.4383 31.1051 35.2289 31.1486 34.8808C31.1949 34.5109 30.9909 34.2934 30.6918 34.1574C30.3092 33.9848 29.9231 33.8227 29.5366 33.6604C29.3324 33.5746 29.1281 33.4888 28.9241 33.4014C28.8215 33.3573 28.7181 33.3144 28.6148 33.2715L28.6146 33.2714L28.6144 33.2713L28.6143 33.2713L28.6143 33.2712C28.3673 33.1687 28.1202 33.0661 27.8826 32.9473C25.5874 31.7969 25.3916 28.8001 27.5399 27.3833C29.0574 26.3826 30.6754 26.4152 32.3153 27.0543C32.8945 27.28 33.3949 27.6335 33.8517 28.0985C33.365 28.7077 32.8836 29.3141 32.405 29.9178C32.2999 29.8611 32.1983 29.804 32.0985 29.748L32.0984 29.7479C31.9064 29.6401 31.7208 29.5359 31.5293 29.4446C30.9148 29.1537 30.2702 29.053 29.604 29.2135C29.2967 29.2869 29.0519 29.4446 29.0247 29.8063C29.0003 30.1381 29.1226 30.3475 29.5061 30.5079C30.035 30.7283 30.5681 30.9402 31.1015 31.1522L31.1015 31.1523L31.1016 31.1523C31.4238 31.2804 31.7462 31.4085 32.0678 31.5386C33.1828 31.99 33.9795 32.7487 34.1373 33.9779C34.3358 35.5117 33.7158 36.7653 32.3125 37.5213C31.2955 38.0679 30.1995 38.1686 29.071 38.0299C27.8744 37.883 26.7975 37.4588 25.8621 36.6946C25.8173 36.6585 25.7747 36.6201 25.7274 36.5775C25.7 36.5529 25.671 36.5268 25.6391 36.4988C25.9137 36.169 26.1864 35.8411 26.4607 35.5112L26.4689 35.5014L26.4712 35.4986C26.7475 35.1664 27.0254 34.8322 27.3088 34.4919C27.9071 34.9379 28.5108 35.3376 29.226 35.46ZM8.75189 28.1992C8.97216 29.2897 9.60851 30.0702 10.6337 30.5271C11.2559 30.8048 11.9122 30.7967 12.5691 30.7886L12.6053 30.7881C12.8561 30.7863 13.107 30.7869 13.3625 30.7875C13.4921 30.7878 13.623 30.7881 13.7556 30.7881C13.5677 29.7348 13.3818 28.6904 13.1968 27.6517L13.1964 27.6498C13.0014 26.5545 12.8074 25.4654 12.6135 24.3784H8.09379C8.09379 24.4092 8.09301 24.4346 8.09234 24.4566C8.09123 24.4929 8.0904 24.52 8.09379 24.547C8.14934 24.8621 8.2038 25.1773 8.25826 25.4925L8.2583 25.4927C8.41441 26.3963 8.57045 27.2994 8.75189 28.1965V28.1992ZM17.8989 33.9055C18.5163 33.9114 19.1173 33.9172 19.7001 34.0243V34.0216C21.0217 34.2637 21.9001 35.3541 22.134 36.7818C22.2589 37.5491 22.3979 38.3149 22.5368 39.0804C22.5913 39.3812 22.6459 39.6819 22.6996 39.9826C22.7142 40.0574 22.7224 40.1323 22.7315 40.2156C22.7343 40.2413 22.7372 40.2678 22.7404 40.2953H18.2126C18.0335 39.2998 17.8545 38.3019 17.6738 37.2942C17.4729 36.1742 17.2698 35.0422 17.0622 33.8884C17.3443 33.9001 17.6232 33.9028 17.8989 33.9055Z" fill="white"/>
</svg>

<svg xmlns="http://www.w3.org/2000/svg" width="64" height="65" fill="none" viewBox="0 0 64 65"><rect width="64" height="64" y=".304" fill="#1048E5" rx="32"/><rect width="63" height="63" x=".5" y=".804" stroke="#070B14" stroke-opacity=".15" rx="31.5"/><path fill="#fff" fill-rule="evenodd" d="M11.844 20.109c-.131.217-.264.313-.53.3h.002c-.35-.02-.701-.016-1.057-.012l-.444.003c3.337-6.627 11.237-13.173 21.763-13.382 11.229-.223 19.45 6.657 22.846 13.382h-.407c-.45.002-.893.004-1.336-.011-.081-.003-.182-.128-.236-.217a24 24 0 0 0-3.84-4.836 23.5 23.5 0 0 0-9.195-5.534 23.4 23.4 0 0 0-5.164-1.05c-4.47-.396-8.718.403-12.727 2.407-4.084 2.043-7.307 5.042-9.675 8.95m40.598 24.41c.093-.158.188-.234.38-.23q.578.013 1.164.008l.45-.002C50.807 51.39 42.875 57.24 33.33 57.653c-11.734.509-20.086-6.632-23.526-13.355h.454c.441-.003.868-.004 1.292.008.082.003.182.109.231.19a23 23 0 0 0 2.703 3.67c3.38 3.73 7.525 6.167 12.43 7.298 2.2.509 4.433.683 6.685.538a23.5 23.5 0 0 0 8.044-1.955 23.6 23.6 0 0 0 7.201-4.914 23.4 23.4 0 0 0 3.598-4.615M12.66 40.11c.149-.792.287-1.59.426-2.384l.017-.096c.337-1.933 1.308-3.413 3.07-4.356.752-.404 1.49-.829 2.23-1.255q.618-.357 1.24-.709c1.292-.726 2.222-1.724 2.477-3.244a442 442 0 0 1 .45-2.619l.081-.476.103-.595h-4.528l-.02.068c-.02.064-.038.12-.048.18l-.18 1.018v.001q-.131.744-.266 1.487c-.342 1.893-1.308 3.334-3.021 4.267-1.303.71-2.586 1.452-3.862 2.208-1.145.68-1.895 1.66-2.11 3.005-.114.705-.24 1.406-.364 2.108-.057.323-.116.646-.178.98v.002q-.055.293-.11.6c1.511 0 2.969 0 4.427-.008.057 0 .152-.117.165-.19zm40.89-12.702c1.45.69 2.217 1.898 2.497 3.435v-.003c.261 1.433.19 2.853-.386 4.207-.623 1.458-1.77 2.3-3.294 2.638-.456.1-.927.166-1.395.176-.92.02-1.842.017-2.763.015h-.85a.4.4 0 0 1-.074-.011q-.03-.007-.079-.014V27.16q0-.357.35-.357l.92-.002c.735-.003 1.47-.006 2.206.008.992.016 1.963.166 2.868.598M50.752 35.5c1.175-.052 1.966-.699 2.26-1.83v-.003a5.6 5.6 0 0 0 .098-2.287c-.261-1.694-1.275-2.282-2.953-2.195V35.5l.215.002c.133.002.257.003.38-.002m-8.06-5.904q.16.106.32.225l.167.12.39-.477.016-.02 1.117-1.365-.105-.096-.001-.001a5 5 0 0 0-.2-.178c-1.245-1.047-2.68-1.376-4.263-1.11-1.689.283-3.016 1.132-3.818 2.657-.947 1.798-.98 3.683-.288 5.567.478 1.308 1.414 2.208 2.708 2.725.862.343 1.76.47 2.684.435 1.23-.046 2.336-.427 3.31-1.194a.47.47 0 0 0 .198-.41q-.006-1.488-.005-2.974v-1.785q-.001-.09-.01-.178l-.003-.031-.003-.047-.041-.011a.2.2 0 0 0-.063-.014h-.001q-1.957.001-3.915-.005c-.182 0-.206.09-.206.237a92 92 0 0 1 0 1.223v.947h1.631l-.001.414c-.002.311-.004.612.004.913.005.201-.07.32-.261.337l-.222.02c-.304.027-.61.055-.91.026-1-.095-1.74-.59-2.08-1.566-.35-1.012-.372-2.045-.032-3.062.554-1.67 2.412-2.295 3.883-1.325zM29.226 35.46c.435.073.897.057 1.338.01h.003c.307-.032.538-.241.582-.59.046-.37-.158-.587-.457-.723-.383-.172-.769-.334-1.155-.497q-.307-.127-.613-.259-.153-.066-.31-.13a11 11 0 0 1-.731-.324c-2.296-1.15-2.491-4.147-.343-5.564 1.517-1 3.135-.968 4.775-.329.58.226 1.08.58 1.537 1.045q-.73.913-1.447 1.819-.157-.086-.306-.17a10 10 0 0 0-.57-.303c-.614-.291-1.259-.392-1.925-.232-.307.074-.552.232-.58.593-.024.332.099.541.482.702q.794.328 1.596.644.483.191.966.387c1.115.451 1.912 1.21 2.07 2.439.198 1.534-.422 2.787-1.825 3.543-1.018.547-2.114.648-3.242.509-1.197-.147-2.274-.571-3.209-1.335-.045-.037-.087-.075-.135-.117l-.088-.08.822-.987.008-.01.002-.002.838-1.007c.598.446 1.202.846 1.917.968M8.752 28.2c.22 1.09.857 1.87 1.882 2.327.622.278 1.278.27 1.935.262h.036q.375-.003.758-.002l.393.001-.56-3.136v-.002l-.582-3.272h-4.52l-.002.079c0 .036-.002.063.002.09l.164.945c.156.904.312 1.807.494 2.704zm9.147 5.706c.617.005 1.218.011 1.801.118v-.002c1.322.242 2.2 1.332 2.434 2.76.125.767.264 1.533.403 2.298l.163.903q.019.11.032.233l.008.08h-4.527l-1.15-6.408c.281.012.56.015.836.018" clip-rule="evenodd"/></svg>
